images/reviews/bg_mobile.svg

<svg width="320" height="1779" viewBox="0 0 320 1779" fill="none" xmlns="http://www.w3.org/2000/svg">
<g clip-path="url(#clip0_33_171)">
<path fill-rule="evenodd" clip-rule="evenodd" d="M117.521 85.0388C86.3414 115.006 78.407 158.435 70.2744 197.362C62.925 232.541 68.1137 264.59 73.1692 297.334C78.7272 333.334 70.1965 382.714 101.28 398.188C133.081 414.019 182.655 408.844 221.793 406.519C259.529 404.277 289.771 411.118 322.972 385.017C358.368 357.191 328.549 303.913 350.321 265.441C369.851 230.932 431.998 219.976 436.93 183.651C441.702 148.502 393.141 142.255 369.84 121.67C351.72 105.662 336.528 88.1977 315.208 76.1194C288.864 61.1944 264.39 41.4573 230.92 42.9674C192.6 44.6964 148.634 55.1373 117.521 85.0388Z" stroke="url(#paint0_linear_33_171)"/>
<path fill-rule="evenodd" clip-rule="evenodd" d="M183.823 66.7901C146.332 88.3443 128.149 128.574 110.86 164.387C95.2367 196.751 92.5359 229.105 89.5378 262.102C86.2417 298.378 66.0436 344.24 92.4727 366.759C119.512 389.798 168.87 396.742 207.411 403.933C244.573 410.867 272.269 424.805 310.789 407.491C351.854 389.032 335.778 330.131 366.192 298.053C393.475 269.277 456.429 273.648 469.983 239.587C483.099 206.629 437.481 188.845 419.839 163.244C406.118 143.336 395.591 122.72 377.818 105.853C355.855 85.0103 336.869 59.9493 304.024 53.3356C266.42 45.7636 221.233 45.2828 183.823 66.7901Z" stroke="url(#paint1_linear_33_171)"/>
<g opacity="0.5" filter="url(#filter0_f_33_171)">
<path fill-rule="evenodd" clip-rule="evenodd" d="M34.7789 743.631C-63.8609 661.55 -125.5 568.325 -182.977 484.06C-234.919 407.91 -256.3 346.744 -278.682 284.08C-303.288 215.187 -372.302 109.527 -320.246 99.7354C-266.987 89.7178 -153.498 134.417 -65.6971 166.149C18.9594 196.745 77.9881 203.813 177.095 279.48C282.751 360.148 272.035 447.193 358.819 539.958C436.666 623.172 583.498 688.234 631.333 765.03C677.62 839.341 577.997 818.419 548.145 843.912C524.929 863.737 509.592 888.529 475.382 898.205C433.11 910.161 399.832 933.132 325.235 906.962C239.828 876.999 133.204 825.534 34.7789 743.631Z" fill="url(#paint2_linear_33_171)"/>
</g>
<g opacity="0.6" filter="url(#filter1_f_33_171)">
<path fill-rule="evenodd" clip-rule="evenodd" d="M331.25 720.098C312.559 720.165 297.156 704.341 283.03 690.593C270.264 678.17 262.362 661.772 254.212 645.124C245.251 626.821 227.891 608.619 233.041 588.488C238.309 567.893 255.399 548.997 268.368 533.299C280.872 518.164 288.324 502.213 306.501 499.572C325.878 496.756 332.366 533.072 350.635 540.789C367.023 547.711 389.776 525.998 402.124 539.963C414.073 553.475 400.697 576.992 399.509 596.058C398.584 610.884 399.012 625.104 395.916 639.559C392.09 657.422 390.281 676.613 379.333 690.249C366.798 705.861 349.901 720.031 331.25 720.098Z" fill="url(#paint3_linear_33_171)"/>
</g>
<g opacity="0.6" filter="url(#filter2_f_33_171)">
<path fill-rule="evenodd" clip-rule="evenodd" d="M97.7439 269.427C78.8848 277.261 55.2126 263.551 33.8942 251.948C14.6288 241.463 -1.75529 223.915 -18.5191 206.152C-36.9494 186.623 -63.8172 170.703 -68.9203 143.003C-74.1412 114.664 -66.5434 83.5806 -61.4731 58.2688C-56.5843 33.8635 -57.2197 10.5164 -40.1997 -0.373161C-22.055 -11.9823 3.10015 31.4481 25.5182 33.6741C45.6277 35.6709 57.5075 -1.33661 77.1398 11.2779C96.1367 23.4842 94.6594 58.8963 103.221 83.6014C109.879 102.814 117.593 120.695 121.865 140.337C127.145 164.607 135.144 189.73 131.06 211.586C126.385 236.609 116.562 261.61 97.7439 269.427Z" fill="url(#paint4_linear_33_171)"/>
</g>
<g opacity="0.8" filter="url(#filter3_f_33_171)">
<path fill-rule="evenodd" clip-rule="evenodd" d="M-30.0512 700.645C-51.3344 702.509 -64.2376 690.827 -76.2948 680.75C-87.1909 671.643 -91.3941 658.758 -95.8069 645.689C-100.658 631.32 -115.093 617.848 -103.359 600.593C-91.3543 582.94 -66.3969 565.558 -47.0618 551.237C-28.4191 537.428 -15.2851 523.43 6.16304 519.473C29.0286 515.255 25.8094 544.857 44.34 549.514C60.9625 553.69 93.184 533.416 103.155 543.845C112.804 553.937 90.7232 574.807 83.8061 590.792C78.4269 603.223 74.7627 615.018 67.0209 627.35C57.4544 642.588 49.7952 658.739 33.3602 671.148C14.5436 685.356 -8.81442 698.786 -30.0512 700.645Z" fill="url(#paint5_linear_33_171)"/>
</g>
</g>
<defs>
<filter id="filter0_f_33_171" x="-839.205" y="-401.697" width="1982.61" height="1820.68" filterUnits="userSpaceOnUse" color-interpolation-filters="sRGB">
<feFlood flood-opacity="0" result="BackgroundImageFix"/>
<feBlend mode="normal" in="SourceGraphic" in2="BackgroundImageFix" result="shape"/>
<feGaussianBlur stdDeviation="250" result="effect1_foregroundBlur_33_171"/>
</filter>
<filter id="filter1_f_33_171" x="97.9008" y="365.214" width="443.357" height="489.087" filterUnits="userSpaceOnUse" color-interpolation-filters="sRGB">
<feFlood flood-opacity="0" result="BackgroundImageFix"/>
<feBlend mode="normal" in="SourceGraphic" in2="BackgroundImageFix" result="shape"/>
<feGaussianBlur stdDeviation="67.1014" result="effect1_foregroundBlur_33_171"/>
</filter>
<filter id="filter2_f_33_171" x="-270.676" y="-202.342" width="602.857" height="674.074" filterUnits="userSpaceOnUse" color-interpolation-filters="sRGB">
<feFlood flood-opacity="0" result="BackgroundImageFix"/>
<feBlend mode="normal" in="SourceGraphic" in2="BackgroundImageFix" result="shape"/>
<feGaussianBlur stdDeviation="100" result="effect1_foregroundBlur_33_171"/>
</filter>
<filter id="filter3_f_33_171" x="-187.846" y="439.063" width="373.402" height="341.78" filterUnits="userSpaceOnUse" color-interpolation-filters="sRGB">
<feFlood flood-opacity="0" result="BackgroundImageFix"/>
<feBlend mode="normal" in="SourceGraphic" in2="BackgroundImageFix" result="shape"/>
<feGaussianBlur stdDeviation="40" result="effect1_foregroundBlur_33_171"/>
</filter>
<linearGradient id="paint0_linear_33_171" x1="40.533" y1="499.877" x2="403.618" y2="268.174" gradientUnits="userSpaceOnUse">
<stop stop-color="#270F69"/>
<stop offset="1" stop-color="#270F69" stop-opacity="0"/>
</linearGradient>
<linearGradient id="paint1_linear_33_171" x1="8.97588" y1="450.777" x2="417.254" y2="313.569" gradientUnits="userSpaceOnUse">
<stop stop-color="#270F69"/>
<stop offset="1" stop-color="#270F69" stop-opacity="0"/>
</linearGradient>
<linearGradient id="paint2_linear_33_171" x1="-631.586" y1="-71.8861" x2="-338.423" y2="-312.605" gradientUnits="userSpaceOnUse">
<stop stop-color="#EE86FF"/>
<stop offset="1" stop-color="#270F69"/>
</linearGradient>
<linearGradient id="paint3_linear_33_171" x1="181.808" y1="621.79" x2="269.373" y2="486.929" gradientUnits="userSpaceOnUse">
<stop stop-color="#EE86FF"/>
<stop offset="1" stop-color="#270F69"/>
</linearGradient>
<linearGradient id="paint4_linear_33_171" x1="-103.654" y1="206.535" x2="-44.0392" y2="11.2226" gradientUnits="userSpaceOnUse">
<stop stop-color="#EE86FF"/>
<stop offset="1" stop-color="#270F69"/>
</linearGradient>
<linearGradient id="paint5_linear_33_171" x1="-171.363" y1="633.269" x2="-100.036" y2="480.876" gradientUnits="userSpaceOnUse">
<stop stop-color="#EE86FF"/>
<stop offset="1" stop-color="#270F69"/>
</linearGradient>
<clipPath id="clip0_33_171">
<rect width="320" height="1779" fill="white"/>
</clipPath>
</defs>
</svg>

<svg width="320" height="1779" fill="none" xmlns="http://www.w3.org/2000/svg"><g clip-path="url(#a)"><path clip-rule="evenodd" d="M117.521 85.039c-31.18 29.967-39.114 73.396-47.247 112.323-7.349 35.179-2.16 67.228 2.895 99.972 5.558 36-2.972 85.38 28.111 100.854 31.801 15.831 81.375 10.656 120.513 8.331 37.736-2.242 67.978 4.599 101.179-21.502 35.396-27.826 5.577-81.104 27.349-119.576 19.53-34.509 81.677-45.465 86.609-81.79 4.772-35.149-43.789-41.396-67.09-61.981-18.12-16.008-33.312-33.472-54.632-45.55-26.344-14.926-50.818-34.663-84.288-33.153-38.32 1.73-82.286 12.17-113.399 42.072z" stroke="url(#b)"/><path clip-rule="evenodd" d="M183.823 66.79c-37.491 21.554-55.674 61.784-72.963 97.597-15.623 32.364-18.324 64.718-21.322 97.715-3.296 36.276-23.494 82.138 2.935 104.657 27.039 23.039 76.397 29.983 114.938 37.174 37.162 6.934 64.858 20.872 103.378 3.558 41.065-18.459 24.989-77.36 55.403-109.438 27.283-28.776 90.237-24.405 103.791-58.466 13.116-32.958-32.502-50.742-50.144-76.343-13.721-19.908-24.248-40.524-42.021-57.391-21.963-20.843-40.949-45.904-73.794-52.517-37.604-7.572-82.791-8.053-120.201 13.454z" stroke="url(#c)"/><g opacity=".5" filter="url(#d)"><path fill-rule="evenodd" clip-rule="evenodd" d="M34.779 743.631C-63.861 661.55-125.5 568.325-182.977 484.06c-51.942-76.15-73.323-137.316-95.705-199.98-24.606-68.893-93.62-174.553-41.564-184.345 53.259-10.017 166.748 34.682 254.549 66.414 84.656 30.596 143.685 37.664 242.792 113.331 105.656 80.668 94.94 167.713 181.724 260.478 77.847 83.214 224.679 148.276 272.514 225.072 46.287 74.311-53.336 53.389-83.188 78.882-23.216 19.825-38.553 44.617-72.763 54.293-42.272 11.956-75.55 34.927-150.147 8.757-85.407-29.963-192.031-81.428-290.456-163.331z" fill="url(#e)"/></g><g opacity=".6" filter="url(#f)"><path fill-rule="evenodd" clip-rule="evenodd" d="M331.25 720.098c-18.691.067-34.094-15.757-48.22-29.505-12.766-12.423-20.668-28.821-28.818-45.469-8.961-18.303-26.321-36.505-21.171-56.636 5.268-20.595 22.358-39.491 35.327-55.189 12.504-15.135 19.956-31.086 38.133-33.727 19.377-2.816 25.865 33.5 44.134 41.217 16.388 6.922 39.141-14.791 51.489-.826 11.949 13.512-1.427 37.029-2.615 56.095-.925 14.826-.497 29.046-3.593 43.501-3.826 17.863-5.635 37.054-16.583 50.69-12.535 15.612-29.432 29.782-48.083 29.849z" fill="url(#g)"/></g><g opacity=".6" filter="url(#h)"><path fill-rule="evenodd" clip-rule="evenodd" d="M97.744 269.427c-18.86 7.834-42.531-5.876-63.85-17.479-19.265-10.485-35.65-28.033-52.413-45.796-18.43-19.529-45.298-35.449-50.401-63.149-5.221-28.339 2.377-59.422 7.447-84.734C-56.584 33.864-57.22 10.516-40.2-.373c18.145-11.61 43.3 31.821 65.718 34.047 20.11 1.997 31.99-35.01 51.622-22.396C96.137 23.484 94.66 58.896 103.22 83.6c6.658 19.213 14.372 37.094 18.644 56.736 5.28 24.27 13.279 49.393 9.195 71.249-4.675 25.023-14.498 50.024-33.316 57.841z" fill="url(#i)"/></g><g opacity=".8" filter="url(#j)"><path fill-rule="evenodd" clip-rule="evenodd" d="M-30.051 700.645c-21.283 1.864-34.187-9.818-46.244-19.895-10.896-9.107-15.1-21.992-19.512-35.061-4.851-14.369-19.286-27.841-7.552-45.096 12.005-17.653 36.962-35.035 56.297-49.356 18.643-13.809 31.777-27.807 53.225-31.764 22.866-4.218 19.646 25.384 38.177 30.041 16.622 4.176 48.844-16.098 58.815-5.669 9.649 10.092-12.432 30.962-19.349 46.947-5.38 12.431-9.043 24.226-16.785 36.558-9.567 15.238-17.226 31.389-33.66 43.798-18.817 14.208-42.175 27.638-63.412 29.497z" fill="url(#k)"/></g></g><defs><linearGradient id="b" x1="40.533" y1="499.877" x2="403.618" y2="268.174" gradientUnits="userSpaceOnUse"><stop stop-color="#270F69"/><stop offset="1" stop-color="#270F69" stop-opacity="0"/></linearGradient><linearGradient id="c" x1="8.976" y1="450.777" x2="417.254" y2="313.569" gradientUnits="userSpaceOnUse"><stop stop-color="#270F69"/><stop offset="1" stop-color="#270F69" stop-opacity="0"/></linearGradient><linearGradient id="e" x1="-631.586" y1="-71.886" x2="-338.423" y2="-312.605" gradientUnits="userSpaceOnUse"><stop stop-color="#EE86FF"/><stop offset="1" stop-color="#270F69"/></linearGradient><linearGradient id="g" x1="181.808" y1="621.79" x2="269.373" y2="486.929" gradientUnits="userSpaceOnUse"><stop stop-color="#EE86FF"/><stop offset="1" stop-color="#270F69"/></linearGradient><linearGradient id="i" x1="-103.654" y1="206.535" x2="-44.039" y2="11.223" gradientUnits="userSpaceOnUse"><stop stop-color="#EE86FF"/><stop offset="1" stop-color="#270F69"/></linearGradient><linearGradient id="k" x1="-171.363" y1="633.269" x2="-100.036" y2="480.876" gradientUnits="userSpaceOnUse"><stop stop-color="#EE86FF"/><stop offset="1" stop-color="#270F69"/></linearGradient><filter id="d" x="-839.205" y="-401.697" width="1982.61" height="1820.68" filterUnits="userSpaceOnUse" color-interpolation-filters="sRGB"><feFlood flood-opacity="0" result="BackgroundImageFix"/><feBlend in="SourceGraphic" in2="BackgroundImageFix" result="shape"/><feGaussianBlur stdDeviation="250" result="effect1_foregroundBlur_33_171"/></filter><filter id="f" x="97.901" y="365.214" width="443.357" height="489.087" filterUnits="userSpaceOnUse" color-interpolation-filters="sRGB"><feFlood flood-opacity="0" result="BackgroundImageFix"/><feBlend in="SourceGraphic" in2="BackgroundImageFix" result="shape"/><feGaussianBlur stdDeviation="67.101" result="effect1_foregroundBlur_33_171"/></filter><filter id="h" x="-270.676" y="-202.342" width="602.857" height="674.074" filterUnits="userSpaceOnUse" color-interpolation-filters="sRGB"><feFlood flood-opacity="0" result="BackgroundImageFix"/><feBlend in="SourceGraphic" in2="BackgroundImageFix" result="shape"/><feGaussianBlur stdDeviation="100" result="effect1_foregroundBlur_33_171"/></filter><filter id="j" x="-187.846" y="439.063" width="373.402" height="341.78" filterUnits="userSpaceOnUse" color-interpolation-filters="sRGB"><feFlood flood-opacity="0" result="BackgroundImageFix"/><feBlend in="SourceGraphic" in2="BackgroundImageFix" result="shape"/><feGaussianBlur stdDeviation="40" result="effect1_foregroundBlur_33_171"/></filter><clipPath id="a"><path fill="#fff" d="M0 0h320v1779H0z"/></clipPath></defs></svg>
